X: 41849
T: Violet Tulloch, Queen Of Lerwick
R: barndance
M: 4/4
K: Dmajor
|:A3 B AF3|G3 A ce3|d3 F Bd3|A3 G GF3|E3 F G2A2|A3 c eg3|f3 Af2 e2|1 .d8:|2 .d6 fg|a3 b a2f2||
g2 f2 cd3|B2 A2 g3f|f3 ee2 fg|a2 ab a2 ef|g2 f2 cd3|Bg ca d2 d2|a2ba2 ef|g2 f2 cd3|B2 A2 g2 f2|
f3 ee2 f2|A3 B AF3|G3 A cg3|f3 A f2 e2|d8||

